usr/share/icons/biglinux-icons-material/scalable/apps/libreoffice-base.svg

<svg width="24" height="24" viewBox="0 0 24 24" fill="none" xmlns="http://www.w3.org/2000/svg">
<path fill-rule="evenodd" clip-rule="evenodd" d="M9.59604 1.11359C9.71588 1.11486 9.83043 1.0996 9.93969 1.06779C11.3755 0.973736 12.8111 0.977551 14.2467 1.07924C15.5484 1.18066 16.8085 1.46308 18.0269 1.9265C20.0525 2.76044 21.4386 4.2069 22.185 6.26586C22.6119 7.50549 22.8639 8.78021 22.9411 10.09C23.0478 11.7347 23.0096 13.3758 22.8265 15.0133C22.6895 16.1642 22.3916 17.271 21.933 18.3336C21.0824 20.1761 19.704 21.447 17.7978 22.1463C16.2531 22.6682 14.6647 22.943 13.0325 22.9706C11.1966 23.0661 9.37913 22.9287 7.57997 22.5585C4.26839 21.8208 2.22559 19.8018 1.45158 16.5017C1.12311 15.0161 0.974199 13.5124 1.00483 11.9906C0.968176 10.3724 1.14 8.77709 1.52031 7.20471C2.33171 4.11908 4.2905 2.20701 7.39669 1.46852C8.12048 1.29157 8.8536 1.17326 9.59604 1.11359Z" fill="url(#paint0_radial_10_2)"/>
<path d="M12.0003 10.1655C15.2908 10.1655 17.9584 9.13947 17.9584 7.87385C17.9584 6.60824 15.2908 5.58225 12.0003 5.58225C8.70971 5.58225 6.04218 6.60824 6.04218 7.87385C6.04218 9.13947 8.70971 10.1655 12.0003 10.1655Z" stroke="#F4F4F4" stroke-width="0.916641" stroke-linejoin="round"/>
<path d="M6.04156 7.76004V16.1244" stroke="#F4F4F4" stroke-width="0.916641"/>
<path d="M17.9577 10.6238C17.9578 11.0261 17.6825 11.4213 17.1595 11.7696C16.6366 12.118 15.8844 12.4073 14.9786 12.6085C14.0729 12.8096 13.0454 12.9155 11.9996 12.9155C10.9537 12.9155 9.92627 12.8096 9.02052 12.6085C8.11474 12.4073 7.36256 12.118 6.83962 11.7696C6.31667 11.4213 6.04137 11.0261 6.04139 10.6238" stroke="#F4F4F4" stroke-width="0.916641" stroke-linejoin="round"/>
<path d="M17.9577 13.3738C17.9578 13.776 17.6825 14.1712 17.1595 14.5196C16.6366 14.868 15.8844 15.1573 14.9786 15.3584C14.0729 15.5595 13.0454 15.6654 11.9996 15.6654C10.9537 15.6654 9.92627 15.5595 9.02052 15.3584C8.11474 15.1573 7.36256 14.868 6.83962 14.5196C6.31667 14.1712 6.04137 13.776 6.04139 13.3738" stroke="#F4F4F4" stroke-width="0.916641" stroke-linejoin="round"/>
<path d="M17.9577 16.1237C17.9578 16.526 17.6825 16.9212 17.1595 17.2696C16.6366 17.6179 15.8844 17.9072 14.9786 18.1084C14.0729 18.3095 13.0454 18.4154 11.9996 18.4154C10.9537 18.4154 9.92627 18.3095 9.02052 18.1084C8.11474 17.9072 7.36256 17.6179 6.83962 17.2696C6.31667 16.9212 6.04137 16.526 6.04139 16.1237" stroke="#F4F4F4" stroke-width="0.916641" stroke-linejoin="round"/>
<path d="M17.9577 7.76004V16.1244" stroke="#F4F4F4" stroke-width="0.916641"/>
<defs>
<radialGradient id="paint0_radial_10_2" cx="0" cy="0" r="1" gradientUnits="userSpaceOnUse" gradientTransform="translate(12 1) rotate(90) scale(11)">
<stop stop-color="#D89BD9"/>
<stop offset="1" stop-color="#B138B4"/>
</radialGradient>
</defs>
</svg>

<svg xmlns="http://www.w3.org/2000/svg" width="24" height="24" fill="none"><path fill="url(#a)" fill-rule="evenodd" d="M9.596 1.114c.12 0 .234-.014.344-.046a31.627 31.627 0 0 1 4.307.011c1.301.102 2.561.384 3.78.848 2.025.833 3.412 2.28 4.158 4.339.427 1.24.679 2.514.756 3.824a27.94 27.94 0 0 1-.114 4.923 11.88 11.88 0 0 1-.894 3.32c-.85 1.843-2.229 3.114-4.135 3.813a15.624 15.624 0 0 1-4.765.825 21.423 21.423 0 0 1-5.453-.413c-3.312-.737-5.354-2.756-6.128-6.056a19.047 19.047 0 0 1-.447-4.511 18.491 18.491 0 0 1 .515-4.786c.812-3.086 2.77-4.998 5.877-5.736a13.953 13.953 0 0 1 2.199-.355Z" clip-rule="evenodd"/><path stroke="#F4F4F4" stroke-linejoin="round" stroke-width=".917" d="M12 10.165c3.29 0 5.958-1.026 5.958-2.291 0-1.266-2.667-2.292-5.958-2.292-3.29 0-5.958 1.026-5.958 2.292 0 1.265 2.668 2.292 5.958 2.292Z"/><path stroke="#F4F4F4" stroke-width=".917" d="M6.042 7.76v8.364"/><path stroke="#F4F4F4" stroke-linejoin="round" stroke-width=".917" d="M17.958 10.624c0 .402-.275.797-.798 1.146-.523.348-1.276.637-2.181.838-.906.202-1.934.307-2.98.307-1.045 0-2.073-.105-2.978-.306-.906-.202-1.658-.491-2.181-.84-.523-.348-.799-.743-.799-1.145M17.958 13.374c0 .402-.275.797-.798 1.146-.523.348-1.276.637-2.181.838-.906.201-1.934.307-2.98.307-1.045 0-2.073-.105-2.978-.307-.906-.2-1.658-.49-2.181-.838-.523-.349-.799-.744-.799-1.146M17.958 16.124c0 .402-.275.797-.798 1.146-.523.348-1.276.637-2.181.838-.906.201-1.934.307-2.98.307-1.045 0-2.073-.105-2.978-.307-.906-.2-1.658-.49-2.181-.838-.523-.349-.799-.744-.799-1.146"/><path stroke="#F4F4F4" stroke-width=".917" d="M17.958 7.76v8.364"/><defs><radialGradient id="a" cx="0" cy="0" r="1" gradientTransform="matrix(0 11 -11 0 12 1)" gradientUnits="userSpaceOnUse"><stop stop-color="#D89BD9"/><stop offset="1" stop-color="#B138B4"/></radialGradient></defs></svg>
